Adwaita++/mimetypes/16/virtualbox-vbox.svg

<svg height="16" viewBox="0 0 16 16" width="16" xmlns="http://www.w3.org/2000/svg">
  <path d="m7.725765 4.185715-.30204 1.16506-.995153 3.825433-.746429-2.490697-.079975-.254516h-.262117-5.340051v.696631l5.073469.017578 1.039669 3.454938.364285 1.214143.319898-1.227471 1.012883-3.887975.60421 1.8257.328826.990896.346428-.98641.715307-2.053304.884184 2.709459.079847.245545h.25778l4.973214-.002884v-.730144l-4.715561.018818-1.132909-3.463907-.328698-.999867-.346556.995381-.715307 2.053304-.657525-1.97295z" fill="#474747"/>
</svg>

<svg xmlns="http://www.w3.org/2000/svg" style="isolation:isolate" width="16" height="16" viewBox="0 0 16 16">
 <defs>
  <style id="current-color-scheme" type="text/css">
   .ColorScheme-Text { color:#474747; } .ColorScheme-Highlight { color:#5294e2; }
  </style>
  <linearGradient id="arrongin" x1="0%" x2="0%" y1="0%" y2="100%">
   <stop offset="0%" style="stop-color:#dd9b44"/>
   <stop offset="100%" style="stop-color:#ad6c16"/>
  </linearGradient>
  <linearGradient id="aurora" x1="0%" x2="0%" y1="0%" y2="100%">
   <stop offset="0%" style="stop-color:#09D4DF"/>
   <stop offset="100%" style="stop-color:#9269F4"/>
  </linearGradient>
  <linearGradient id="fitdance" x1="0%" x2="0%" y1="0%" y2="100%">
   <stop offset="0%" style="stop-color:#1AD6AB"/>
   <stop offset="100%" style="stop-color:#329DB6"/>
  </linearGradient>
  <linearGradient id="oomox" x1="0%" x2="0%" y1="0%" y2="100%">
   <stop offset="0%" style="stop-color:#efefe7"/>
   <stop offset="100%" style="stop-color:#8f8f8b"/>
  </linearGradient>
  <linearGradient id="rainblue" x1="0%" x2="0%" y1="0%" y2="100%">
   <stop offset="0%" style="stop-color:#00F260"/>
   <stop offset="100%" style="stop-color:#0575E6"/>
  </linearGradient>
  <linearGradient id="sunrise" x1="0%" x2="0%" y1="0%" y2="100%">
   <stop offset="0%" style="stop-color:#FF8501"/>
   <stop offset="100%" style="stop-color:#FFCB01"/>
  </linearGradient>
  <linearGradient id="telinkrin" x1="0%" x2="0%" y1="0%" y2="100%">
   <stop offset="0%" style="stop-color:#b2ced6"/>
   <stop offset="100%" style="stop-color:#6da5b7"/>
  </linearGradient>
  <linearGradient id="60spsycho" x1="0%" x2="0%" y1="0%" y2="100%">
   <stop offset="0%" style="stop-color:#df5940"/>
   <stop offset="25%" style="stop-color:#d8d15f"/>
   <stop offset="50%" style="stop-color:#e9882a"/>
   <stop offset="100%" style="stop-color:#279362"/>
  </linearGradient>
  <linearGradient id="90ssummer" x1="0%" x2="0%" y1="0%" y2="100%">
   <stop offset="0%" style="stop-color:#f618c7"/>
   <stop offset="20%" style="stop-color:#94ffab"/>
   <stop offset="50%" style="stop-color:#fbfd54"/>
   <stop offset="100%" style="stop-color:#0f83ae"/>
  </linearGradient>
  <linearGradient id="cyberneon" x1="0%" x2="0%" y1="0%" y2="100%">
   <stop offset="0" style="stop-color:#0abdc6"/>
   <stop offset="1" style="stop-color:#ea00d9"/>
  </linearGradient>
 </defs>
 <path style="fill:currentColor" class="ColorScheme-Text" d="M 7.725765 4.185715 L 7.423725 5.350775 L 6.428572 9.176208 L 5.682143 6.685511 L 5.602168 6.430995 L 5.340051 6.430995 L 0 6.430995 L 0 7.127626 L 5.073469 7.145204 L 6.113138 10.600142 L 6.477423 11.814285 L 6.797321 10.586814 L 7.810204 6.698839 L 8.414414 8.524539 L 8.74324 9.515435 L 9.089668 8.529025 L 9.804975 6.475721 L 10.689159 9.18518 L 10.769006 9.430725 L 11.026786 9.430725 L 16 9.427841 L 16 8.697697 L 11.284439 8.716515 L 10.15153 5.252608 L 9.822832 4.252741 L 9.476276 5.248122 L 8.760969 7.301426 L 8.103444 5.328476 L 7.725765 4.185715 Z"/>
</svg>
